X:1
T:CORONA MARCH
T:CORONA MARCH
T:ABBIE A FORD.
T:Dedicated to the Eminent Soprano WILMINA HAMMANN 
T:Copyright 1911 by Harold Rossiter Music Co.,
T:Copyright 1911 by Harold Rossiter Music Co.,
T:Copyright 1911 by Harold Rossiter Music Co.,
T:Copyright 1911 by Harold Rossiter Music Co.,
C:ABBIE A FORD.
Z:Copyright 1911 by Harold Rossiter Music Co.,
%%score { ( 1 3 ) | 2 }
L:1/8
Q:1/4=100
M:2/4
K:Ab
V:1 treble nm="Piano" snm="Pno."
V:3 treble 
V:2 bass 
V:1
!f! A3 A/A/ | (3AEA (3cAc |!<(! e2 =e2 | f2!<)! [_E=Ac]2 | c>B f2- |!>(! f2 B2 | [EGe]2!>)! z2 | %7
 !>![ege']2 z ||!p! e | a/c'a/ [cg][cf] | g/bg/ [cf][ce] | g/bg/ [df][de] | [de]2 ef | %13
 g/bg/ [df][de] | g/bg/ [df][de] | f/af/ [ce][ce] | [ce]2 fg | a/c'a/ [cg][cf] | g/bg/ [cf][ce] | %19
 g/bg/ fe | [Beb]3!8va(! [bb'] | [bb'][c'c''] [=d'=d'']>[c'c''] | [bb'][=a=a'][_a_a'][gg'] | %23
 [ee']!8va)![Ee]/[Ee]/ [Ee][Ee] | [Ee][Ee][Ff][Gg] |:!f!!ff!"_-" [Aa]>[ff'] [ee'][cc'] | %26
 [Bb][Aa][Bb][cc'] | [Ff]4- | [Ff]>[=E=e] [Ff][Aa] | [Dd]4- | [Dd]>[Ee] [Ff][Gg] | [Cc]4- | %32
 [Cc]>[Ee] [Ff][Gg] | [Aa]>[ff'] [ee'][cc'] | [Bb][Aa][Bb][cc'] | [Ff]4- | [Ff]>[=E=e] [Ff][Aa] | %37
 [Dd]3 [Ee] | [Ff][Gg] [cc']>[Bb] | [Aa]4- |1 [Aa]!<(![Ee] [Ff][Gg]!<)! :|2 %41
{/x-} [Aa]!>(! A/A/ AA!>)! ||[K:Db]!p! f4 | e2 d2 | c>d e2- | e A/A/ AA | g4 | g2 e2 | d>e f2- | %49
 fA/A/ AA | a4 | g2 f2 | f>e B2- | BB/B/ BB | B3 c | defd | e!<(! a/a'/ aa/a'/ | %57
 a [Aa]/[Aa]/ [Aa][Aa]!<)! | [ff']4 | [ee']2 [dd']2 | [cc']>[dd'] [ee']2- | [ee'] a/a/ aa | %62
 [gg']4 | [ff']2 [ee']2 | [dd']>[ee'] [ff']2- | [ff'] a/a/ aa |!8va(! [aa']4 | [gg']2 [ff']2 | %68
 [ff']>[ee']!8va)! [Bb]2- | [Bb]c'/b/ =ab | [cc']2 [gbg']2 | [faf']2 [ege']2 | [dfd']4- | %73
 [dfd'] z !>![dfd'] ||[K:Ab]!p! e | a/c'a/ [cg][cf] | g/bg/ [cf][ce] | g/bg/ [df][de] | [de]2 ef | %79
 g/bg/ [df][de] | g/bg/ [df][de] | f/af/ [ce][ce] | [ce]2 fg | a/c'a/ [cg][cf] | g/bg/ [cf][ce] | %85
 g/bg/ fe | [Beb]3!8va(! [bb'] | [bb'][c'c''] [=d'=d'']>[c'c''] | [bb'][=a=a'][_a_a'][gg'] | %89
 [ee']!8va)![Ee]/[Ee]/ [Ee][Ee] |!<(! [Ee][Ee][Ff][Gg]!<)! ||!ff! [Aa]>[ff'] [ee'][cc'] | %92
 [Bb][Aa][Bb][cc'] | [Ff]4- | [Ff]>[=E=e] [Ff][Aa] | [Dd]4- | [Dd]>[Ee] [Ff][Gg] | [Cc]4- | %98
 [Cc]>[Ee] [Ff][Gg] | [Aa]>[ff'] [ee'][cc'] | [Bb][Aa][Bb][cc'] | [Ff]4- | [Ff]>[=E=e] [Ff][Aa] | %103
 [Dd]3 [Ee] | [Ff][Gg] [cc']>[Bb] | [Aa]4- | [Aa] z !>![Acea] z |] %107
V:2
 A,3 A,/A,/ | (3A,E,A, (3CA,C | E2 =E2 | F2 F,2 |!ped! [B,,B,]4- | [B,,B,]2 B,2!ped-up! | %6
 [E,B,]2 z2 | !arpeggio!!>![E,,B,,G,]2 z || z | A,[CE] E,[CE] | A,[CE] E,[CE] | B,[DE] E,[DE] | %12
 B,[DE] E,[DE] | B,[DE] E,[DE] | B,[DE] E,[DE] | A,[CE] E,[CE] | A,[CE] E,[CE] | A,[CE] E,[CE] | %18
 A,[CE] E,[CE] | B,[EG] E,[EG] | G,[B,E]/"^cresc."[B,E]/ [B,E][B,E] | F,[A,B,=D] B,,[A,B,D] | %22
 F,[A,B,=D] B,,[A,B,D] | [E,G,B,] z z2 | z4 |: A,,[E,A,C] E,,[E,A,C] | A,,[E,A,C] C,[E,A,C] | %27
 D,[F,A,D] C,[F,=A,E] | B,, z z2 | E,,[E,G,] B,,[E,G,] | E,, z z2 | A,,[E,A,] E,,[E,A,] | %32
 A,, z z2 | A,,[E,A,C] E,,[E,A,C] | A,,[E,A,C] C,[E,A,C] | D,[F,A,D] C,[F,=A,E] | B,, z z2 | %37
 B,,[G,B,] E,,[G,B,] | B,,[E,G,D] E,,[E,G,D] | A,,[E,A,C] E,,[E,A,C] |1 [A,,,A,,] z z2 :|2 %41
 [A,,,A,,] z z2 ||[K:Db] D,[F,A,] A,,[F,A,] | D,[F,A,] A,,[F,A,] | E,[G,A,C] A,,[G,A,C] | %45
 C,A,/A,/ A,A, | C,[G,A,C] A,,[G,A,C] | C,[G,A,C] A,,[G,A,C] | D,[F,A,] A,,[F,A,] | D,A,/A,/ A,A, | %50
 F,[A,B,=D] B,,[A,B,D] | =D,[A,B,=D] B,,[A,B,D] | E,[=G,_D] B,,[G,D] | E,B,/B,/ B,B, | %54
 =G,,[E,=G,D] E,,[E,G,D] | B,,[E,=G,D] E,,[E,G,D] | A,, z z2 | z4 | D,[F,A,D] A,,[F,A,D] | %59
 D,[F,A,D] A,,[F,A,D] | E,[G,A,C] A,,[G,A,C] | C, z z2 | C,[G,A,C] A,,[G,A,C] | %63
 C,[G,A,C] A,,[G,A,C] | D,[F,A,D] A,,[F,A,D] | D, z z2 | F,[A,B,=D] A,,[A,B,D] | %67
 =D,[A,B,=D] A,,[A,B,D] | E,[=G,_D] B,,[G,D] | E, z z2 | E,[G,A,C] A,,[G,A,C] | %71
 C,[G,A,C] A,,[G,A,C] | D,>[B,,B,] [A,,A,][F,,F,] | [D,,D,] z !>![D,,D,] ||[K:Ab] z | %75
 A,[CE] E,[CE] | A,[CE] E,[CE] | B,[DE] E,[DE] | B,[DE] E,[DE] | B,[DE] E,[DE] | B,[DE] E,[DE] | %81
 A,[CE] E,[CE] | A,[CE] E,[CE] | A,[CE] E,[CE] | A,[CE] E,[CE] | B,[EG] E,[EG] | %86
 G,[B,E]/[B,E]/ [B,E][B,E] | F,[A,B,=D] B,,[A,B,D] | F,[A,B,=D] B,,[A,B,D] | [E,G,B,] z z2 | z4 || %91
 A,,[E,A,C] E,,[E,A,C] | A,,[E,A,C] C,[E,A,C] | D,[F,A,D] C,[F,=A,E] | B,, z z2 | %95
 E,,[E,G,] B,,[E,G,] | E,, z z2 | A,,[E,A,] E,,[E,A,] | A,, z z2 | A,,[E,A,C] E,,[E,A,C] | %100
 A,,[E,A,C] C,[E,A,C] | D,[F,A,D] C,[F,=A,E] | B,, z z2 | B,,[G,B,] E,,[G,B,] | %104
 B,,[E,G,D] E,,[E,G,D] | A,,>[F,,F,] [E,,E,][C,,C,] | [A,,,A,,] z !>![A,,,A,,] z |] %107
V:3
 x4 | x4 | x4 | x4 | [=D_A]4- | [DA]2 [=DA]2 | x4 | x3 || x | c2 x2 | c2 x2 | d2 x2 | x4 | d2 x2 | %14
 d2 x2 | c2 x2 | x4 | c2 x2 | c2 x2 | B2 x2 | x3!8va(! x | x4 | x4 | x!8va)! x3 | x4 |: x4 | x4 | %27
 z [Bd]z[=Ae] | [Bd] x3 | z [GB]/[GB]/ [GB][GB] | x4 | z [EA]/[EA]/ [EA][EA] | [EA] x3 | x4 | x4 | %35
 z [Bd]z[=Ae] | [Bd] x3 | z [GB]/[GB]/ [GB] z | x4 | z [ce]/[ce]/ [ce][ce] |1 [ce] x3 :|2 %41
 [ce] x3 ||[K:Db] z [FA]z[FA] | z [FA]z[FA] | z [GA]z[GA]- | [GA] x3 | z [Ac]z[Ac] | z [Ac]z[Ac] | %48
 z [FA]z[FA]- | [FA] x3 | z [A=d]z[Ad] | z [A=d]z[Ad] | z [=G_d]zG- | G x3 | z [E=G]z[EG] | %55
 z =GzG | [_Gc] x3 | x4 | x4 | x4 | x4 | x4 | x4 | x4 | x4 | x4 |!8va(! x4 | x4 | x2!8va)! x2 | %69
 x4 | x4 | x4 | x4 | x3 ||[K:Ab] x | c2 x2 | c2 x2 | d2 x2 | x4 | d2 x2 | d2 x2 | c2 x2 | x4 | %83
 c2 x2 | c2 x2 | B2 x2 | x3!8va(! x | x4 | x4 | x!8va)! x3 | x4 || x4 | x4 | z [Bd]z[=Ae] | %94
 [Bd] x3 | z [GB]/[GB]/ [GB][GB] | x4 | z [EA]/[EA]/ [EA][EA] | [EA] x3 | x4 | x4 | z [Bd]z[=Ae] | %102
 [Bd] x3 | z [GB]/[GB]/ [GB] z | x4 | z3/2 [ce]/[ce][ce] | [ce] x3 |] %107

